X:023
T:Giga TS.023
M:6/8
L:1/8
Q:3/8=90
S:Thomas Sands’ MS,1810,Lincolnshire
R:jig
C:Prefixed as ‘No.11′ in MS
O:England;Lincolnshire
Z:vmp.Ruairidh Greig, 2011
K:Bb
f|f>gf bfe|def [B2D2]F|GBB FBB|EcE(D2f)|
fdf bfb|geg bgb|a(f/g/a/f/) g=e/f/g/e/|[fA][fA][fA][f2A2]:|
|:”_p”(f/e/)|dfd ege|cec dfd|”_f”B(B/c/d/c/) c(c/d/e/c/)|
A(A/B/c/A/) (F2f)|[gB][gB][gB] [ac][ac][ac]|[bd][bd][bd]H[f2A2]e|d/f/e/d/c/B/ c/e/d/c/B/A/|[BD][BD][BD] [B2D2]:|]

